!!!!SEGMENT: Wil1006a-Missa_Osculetur_me-Kyrie
!!!id: Wil1006a
!!!AGN: Mass; Kyrie
!!!voices: 4
!!!OPR: Missa Osculetur me
!!!COM: Adrian Willaert
!!!OTL: Kyrie
**kern	**kern	**kern	**kern
*part4	*part3	*part2	*part1
*staff4	*staff3	*staff2	*staff1
*I"Bassus	*I"Tenor	*I"Altus	*I"Superius
*I'B	*I'T	*I'A	*I'S
*clefF4	*clefGv2	*clefG2	*clefG2
*k[b-]	*k[b-]	*k[b-]	*k[b-]
*F:	*F:	*F:	*F:
*M2/1	*M2/1	*M2/1	*M2/1
*met(C|)	*met(C|)	*met(C|)	*met(C|)
=1	=1	=1	=1
!!section: Kyrie I
!!!OMD: Kyrie I
0r	0r	1f	0r
.	.	2f	.
.	.	2f	.
=2	=2	=2	=2
0r	0r	1g	0r
.	.	[1f	.
=3	=3	=3	=3
1F	0r	2f]	0r
.	.	4e	.
.	.	4d	.
2F	.	2.c	.
2F	.	.	.
.	.	4d	.
=4	=4	=4	=4
1G	0r	2e	0r
.	.	1d	.
[1F	.	.	.
.	.	4c	.
.	.	4B-y	.
=5	=5	=5	=5
2F]	0r	2A	1cc
4E	.	2.f	.
4D	.	.	.
2C	.	.	2cc
.	.	4e	.
[2c	.	2e	2cc
=6	=6	=6	=6
4c]	0r	2d	1dd
4B-y	.	.	.
2B-y	.	2.f	.
2.A	.	.	[1cc
.	.	4e	.
.	.	2a	.
8GL	.	.	.
8FJ	.	.	.
=7	=7	=7	=7
2E	1c	2g	2cc]
2F	.	1f	4b-y
.	.	.	4a
1C	2c	.	2.g
.	2c	2e	.
.	.	.	4a
=8	=8	=8	=8
2r	1d	1.f	2b-y
2.F	.	.	1a
.	[1c	.	.
4G	.	.	.
[2A	.	4e	4g
.	.	4d	4f
=9	=9	=9	=9
4A]	2c]	1c	2.e
4B-y	.	.	.
1c	4B-y	.	.
.	4A	.	4f
.	1G	1d	[1g
2BnXi	.	.	.
=10	=10	=10	=10
2.c	1r	2.e	1g]
4B-y	.	4d	.
4A	[1c	2e	2.a
4G	.	.	.
[2F	.	2f	.
.	.	.	4b-y
=11	=11	=11	=11
2F]	1c]	2g	0cc
2E	.	2G	.
2.F	1c	2.A	.
4E	.	4G	.
=12	=12	=12	=12
1D	1f	2A	1r
.	.	2B-y	.
1C	2.e	1c	1g
.	4d	.	.
=13	=13	=13	=13
1F	4c	2r	2.a
.	4B-y	.	.
.	1c	2c	.
.	.	.	4g
1r	.	2e	2a
.	2B-y	2d	2b-y
=14	=14	=14	=14
0r	1A	2e	2.cc
.	.	2f	.
.	.	.	4dd
.	[1G	2.g	2ee
.	.	.	[2dd
.	.	4a	.
=15	=15	=15	=15
1r	1G]	2b-y	4dd]
.	.	.	4cc
.	.	2g	4b-y
.	.	.	4a
2r	1r	2b-y	2g
[2F	.	[2a	[2cc
=16	=16	=16	=16
2F]	0r	4a]	2cc]
.	.	4g	.
2F	.	4f	2a
.	.	4e	.
2G	.	2d	2b-y
2F	.	[2f	[2a
=17	=17	=17	=17
1B-y	1r	2f]	2a]
.	.	4e	2g
.	.	4d	.
2A	2r	4f	2.a
.	.	4e	.
[2F	[2c	4f	.
.	.	4g	4g
=18	=18	=18	=18
4F]	2c]	0a	2f
4G	.	.	.
2A	2c	.	2e
2D	2d	.	1f
2F	2c	.	.
=19	=19	=19	=19
2F	1f	2r	2.a
4E	.	1A	.
4D	.	.	4b-y
1C	1e	.	1cc
.	.	2G	.
=20	=20	=20	=20
1F	1c	1A	2r
.	.	.	1f
2r	[1d	2.B-y	.
2B-y	.	.	2f
.	.	4A	.
=21	=21	=21	=21
2G	1d]	4B-y	2g
.	.	4c	.
1B-y	.	2d	2f
.	2.d	2G	1b-y
4A	.	[2d	.
4G	4e	.	.
=22	=22	=22	=22
2F	2f	2d]	1a
2A	2e	2c	.
2B-y	2d	2d	1f
2A	[2c	[2f	.
=23	=23	=23	=23
1G	2c]	2f]	1g
.	2B-y	2e	.
[1F	1c	1f	[1a
=24	=24	=24	=24
0F]	1r	1.c	1a]
.	1f	.	2.a
.	.	2d	.
.	.	.	4b-y
=25	=25	=25	=25
0r	2e	2c	2cc
.	2d	1f	2b-y
.	2.c	.	2a
.	.	2e	[2g
.	4B-y	.	.
=26	=26	=26	=26
1r	1A	1c	2g]
.	.	.	2f#i
2r	1G	[1d	4g
.	.	.	4a
2G	.	.	4b-y
.	.	.	4g
=27	=27	=27	=27
2F	2r	1d]	2a
2.G	2.B-y	.	2g
.	.	2.d	1dd
4A	4A	.	.
2B-y	2G	.	.
.	.	4e	.
=28	=28	=28	=28
2A	2F	2f	2r
2.G	2.B-y	2e	2g
.	.	2d	2b-y
4F	4A	.	.
2E	[2G	[2c	2cc
=29	=29	=29	=29
1D	2G]	2c]	1dd
.	2F	2BnXi	.
1C	1G	2c	1ee
.	.	2g	.
=30	=30	=30	=30
0r	2r	2a	2cc
.	2G	2.b-y	1dd
.	2B-y	.	.
.	.	4a	.
.	2c	[2g	4cc
.	.	.	4b-y
=31	=31	=31	=31
1r	2.d	2g]	2.a
.	.	2f	.
.	8cL	.	4b-y
.	8dJ	.	.
2r	1e	1g	2cc
[2G	.	.	[2b-y
=32	=32	=32	=32
2G]	2.d	1G	2b-]
4F	.	.	4a
4E	4e	.	4g
2D	2f	1r	2a
[2G	2d	.	[2b-y
=33	=33	=33	=33
2G]	2e	0r	4b-]
.	.	.	4g
2F	2.d	.	2a
2.G	.	.	2b-y
.	4c	.	.
.	4B-y	.	2dd
4F	4A	.	.
=34	=34	=34	=34
2E	2G	1r	4cc
.	.	.	4b-y
2C	1c	.	4a
.	.	.	4g
1D	.	2r	1f
.	2BnXi	2d	.
=35	=35	=35	=35
2C	1c	2e	0r
1F	.	2f	.
.	2r	1g	.
2E	[2c	.	.
=36	=36	=36	=36
2F	4c]	1a	0r
.	4d	.	.
1c	1e	.	.
.	.	2.g	.
4B-y	4d	.	.
4A	4c	4a	.
=37	=37	=37	=37
2G	2d	2b-y	0r
1c	1e	2g	.
.	.	2a	.
2B-y	2d	[2g	.
=38	=38	=38	=38
2.c	2e	4g]	0r
.	.	4f	.
.	2g	4e	.
4B-y	.	4d	.
4A	4f	2c	.
4G	4e	.	.
2F	4d	2f	.
.	4c	.	.
=39	=39	=39	=39
2G	2B-y	4e	0r
.	.	4d	.
2E	2c	1g	.
1D	2.A	.	.
.	.	2f	.
.	4B-y	.	.
=40	=40	=40	=40
2C	2c	2.e	2r
1G	1B-y	.	2g
.	.	4d	.
.	.	2d	2b-y
2E	4A	[2c	2cc
.	4G	.	.
=41	=41	=41	=41
2F	2A	2c]	1dd
2G	1G	2BnXi	.
1C	.	1c	1ee
.	[2g	.	.
=42	=42	=42	=42
1G	2g]	2r	2.dd
.	4f	2g	.
.	4e	.	4ee
2r	2d	2a	2ff
2G	2g	2b-y	2dd
=43	=43	=43	=43
2c	2e	1a	2ee
2d	1f	.	2.dd
2B-y	.	1d	.
.	.	.	4cc
2G	2g	.	4b-y
.	.	.	4a
=44	=44	=44	=44
2c	2e	2.e	2g
4B-y	4d	.	1cc
4A	4c	4f	.
1G	1d	1g	.
.	.	.	2bnXi
=45	=45	=45	=45
0Cl	0cl	0gl	0ccl
=46||	=46||	=46||	=46||
*M2/1	*M2/1	*M2/1	*M2/1
*met(C|)	*met(C|)	*met(C|)	*met(C|)
!!section: Christe
!!!OMD: Christe
0r	0g	0r	0r
=47	=47	=47	=47
0r	1g	0r	0r
.	1a	.	.
=48	=48	=48	=48
0r	2.g	0r	0dd
.	8fL	.	.
.	8eJ	.	.
.	2d	.	.
.	2g	.	.
=49	=49	=49	=49
0r	2f	0r	1dd
.	2.g	.	.
.	.	.	1ee-X
.	4c	.	.
.	[2c	.	.
=50	=50	=50	=50
0G	2c]	0r	1dd
.	2B-y	.	.
.	2e-i	.	2.b-y
.	[2d	.	.
.	.	.	4a
=51	=51	=51	=51
1G	2d]	0r	4b-y
.	.	.	4cc
.	2B-y	.	2.dd
1A	1c	.	.
.	.	.	4cc
.	.	.	[2cc
=52	=52	=52	=52
1G	1d	0g	2cc]
.	.	.	2bnXi
1c	1c	.	4cc
.	.	.	4dd
.	.	.	4ee
.	.	.	4cc
=53	=53	=53	=53
2B-y	0r	1g	2dd
1c	.	.	2ee
.	.	1a	1cc
4B-y	.	.	.
4A	.	.	.
=54	=54	=54	=54
2B-y	0r	1g	0r
2.c	.	.	.
.	.	2.e	.
4B-y	.	.	.
4G	.	.	.
4A	.	4f	.
=55	=55	=55	=55
2.B-y	1r	2g	0r
.	.	2.f	.
4A	.	.	.
2F	[1d	.	.
.	.	4e	.
[2G	.	4d	.
.	.	4c	.
=56	=56	=56	=56
2G]	1d]	2B-y	0r
4F	.	1c	.
4E	.	.	.
2F	1d	.	.
2G	.	2BnXi	.
=57	=57	=57	=57
2C	1e	1c	1r
1c	.	.	.
.	1d	2.G	[1dd
2B-y	.	.	.
.	.	4A	.
=58	=58	=58	=58
4G	1g	4B-y	1dd]
4A	.	4c	.
4B-y	.	2.d	.
4c	.	.	.
2d	2f	.	1dd
.	.	4B-y	.
2G	[2g	[2b-y	.
=59	=59	=59	=59
1c	2g]	2b-]	1ee
.	4f	2a	.
.	4e	.	.
2.B-y	2f	1b-y	1dd
.	[2g	.	.
4A	.	.	.
=60	=60	=60	=60
1G	4g]	0r	2.b-y
.	4f	.	.
.	4d	.	.
.	4e	.	4cc
1r	2.f	.	2dd
.	.	.	[2cc
.	4e	.	.
=61	=61	=61	=61
0r	2c	1r	4cc]
.	.	.	4b-y
.	1d	.	4a
.	.	.	4g
.	.	[1d	2f
.	4c	.	[2g
.	4B-y	.	.
=62	=62	=62	=62
1D	4A	1d]	2g]
.	4G	.	.
.	2A	.	2f#i
1G	2G	1d	[1g
.	2B-y	.	.
=63	=63	=63	=63
2C	2c	1e	2g]
2.G	2G	.	1b-y
.	2.B-y	[1d	.
4A	.	.	.
[2B-y	.	.	4a
.	4c	.	4g
=64	=64	=64	=64
2B-]	2d	2d]	2f
4A	2e	4c	2g
4G	.	4B-y	.
2F	1f	2c	2.a
2D	.	[2d	.
.	.	.	4f
=65	=65	=65	=65
2.E	2r	4d]	1g
.	.	4G	.
.	2c	1c	.
4F	.	.	.
1D	2d	.	1f
.	[2f	2BnXi	.
=66	=66	=66	=66
1C	2f]	0c	2r
.	4e	.	1g
.	4d	.	.
2r	2e	.	.
2F	2f	.	2a
=67	=67	=67	=67
2G	2d	0r	2b-y
1A	2c	.	2.cc
.	1f	.	.
.	.	.	4a
2F	.	.	[2dd
=68	=68	=68	=68
2G	1e	1r	2dd]
2A	.	.	2cc#i
1D	1d	2r	2dd
.	.	2f	[2ff
=69	=69	=69	=69
0r	1c	2g	2ff]
.	.	1a	2ee
.	1f	.	2cc
.	.	4g	[2dd
.	.	4f	.
=70	=70	=70	=70
2r	1e	2g	2dd]
2A	.	2a	2cc#i
2.B-y	[1d	2f	[1dd
.	.	[2b-y	.
4A	.	.	.
=71	=71	=71	=71
2G	0d]	2b-]	1dd]
2F	.	2a	.
1B-y	.	2f	2r
.	.	[2g	2g
=72	=72	=72	=72
1A	2r	2g]	4a
.	.	.	4b-y
.	2c	2f#i	4cc
.	.	.	4a
2G	2d	1g	2b-y
[2c	[2e	.	2cc
=73	=73	=73	=73
2c]	2e]	1r	2.g
4B-y	4d	.	.
4A	4c	.	4a
2G	2d	2r	2b-y
2c	2e	2g	[2cc
=74	=74	=74	=74
0F	0c	2a	4cc]
.	.	.	4a
.	.	1cc	1a
.	.	4b-y	2cc
.	.	4a	.
=75	=75	=75	=75
1r	0r	2b-y	2dd
.	.	2cc	1ee
2r	.	1a	.
2A	.	.	4dd
.	.	.	4cc
=76	=76	=76	=76
2B-y	1r	1g	2dd
1c	.	.	2ee
.	2r	2.e	1cc
4B-y	2c	.	.
4A	.	4f	.
=77	=77	=77	=77
2B-y	2d	1g	2r
2c	1e	.	2g
1A	.	2r	1cc
.	4d	2e	.
.	4c	.	.
=78	=78	=78	=78
1G	2d	1g	1b-y
.	2e	.	.
2.A	1c	2f	[1a
.	.	[2e	.
4G	.	.	.
=79	=79	=79	=79
2.F	2r	2e]	2a]
.	2A	2d	4g
8EL	.	.	4f
8DJ	.	.	.
2C	1c	2e	2g
2F	.	[2f	[2a
=80	=80	=80	=80
2D	1B-y	2f]	2a]
2E	.	4e	2g
.	.	4d	.
1F	[1A	2.c	2a
.	.	.	[2cc
.	.	4d	.
=81	=81	=81	=81
2r	1A]	2e	4cc]
.	.	.	4b-y
1F	.	2c	1a
.	1c	2f	.
2E	.	2g	2g
=82	=82	=82	=82
2F	2.c	2a	2f
1C	.	1g	1e
.	4B-y	.	.
.	1A	.	.
[2c	.	2f#i	4d
.	.	.	4c
=83	=83	=83	=83
2c]	1G	1g	2d
2B-y	.	.	1dd
2.c	[1g	2r	.
.	.	[2e	2cc
8B-yL	.	.	.
8AJ	.	.	.
=84	=84	=84	=84
2G	1g]	2e]	2b-y
2B-y	.	2d	2.dd
2A	1a	2e	.
.	.	.	4cc
2F	.	2f	2cc
=85	=85	=85	=85
2G	1.g	2d	2b-y
1c	.	2.e	2cc
.	.	.	2g
.	.	4f	.
2c	2e	[2g	[2cc
=86	=86	=86	=86
1d	1f	4g]	2cc]
.	.	4f	.
.	.	1f	2bnXi
2.c	1g	.	[1cc
.	.	2e	.
4B-y	.	.	.
=87	=87	=87	=87
2A	2c	4f	2cc]
.	.	4e	.
2B-y	1f	4d	1dd
.	.	4c	.
1G	.	1B-y	.
.	2e	.	4cc
.	.	.	4b-y
=88	=88	=88	=88
0Fl	0fl	0cl	0al
=89||	=89||	=89||	=89||
*M2/1	*M2/1	*M2/1	*M2/1
*met(C|)	*met(C|)	*met(C|)	*met(C|)
!!section: Kyrie II
!!!OMD: Kyrie II
1F	2r	0r	0r
.	1c	.	.
2E	.	.	.
2D	2B-y	.	.
=90	=90	=90	=90
2.F	2A	1r	0r
.	1c	.	.
4E	.	.	.
2C	.	2r	.
2D	2F	[2f	.
=91	=91	=91	=91
1C	2A	2f]	1cc
.	1G	2e	.
1r	.	2d	2b-y
.	2F	[2f	2a
=92	=92	=92	=92
0r	2.A	4f]	1cc
.	.	4e	.
.	.	2c	.
.	8GL	.	.
.	8AJ	.	.
.	2B-y	1d	1f
.	[2F	.	.
=93	=93	=93	=93
0r	4F]	2.c	2r
.	4G	.	.
.	2A	.	1cc
.	.	4d	.
.	1G	2e	.
.	.	2d	2b-y
=94	=94	=94	=94
0r	1r	2.f	2a
.	.	.	2.cc
.	.	4e	.
.	1g	2c	.
.	.	.	4b-y
.	.	2e	2g
=95	=95	=95	=95
2r	2f	2d	2.a
1c	2e	1e	.
.	.	.	4g
.	1g	.	2g
2B-y	.	2d	2dd
=96	=96	=96	=96
2A	1c	2.a	2cc
2.c	.	.	2.ee
.	.	4g	.
.	1g	2g	.
4B-y	.	.	4dd
2G	.	2b-y	[2dd
=97	=97	=97	=97
1A	2f	1a	4dd]
.	.	.	4cc
.	2e	.	1cc
1G	1g	2.d	.
.	.	.	2b-y
.	.	4e	.
=98	=98	=98	=98
2.F	0c	4f	2a
.	.	4g	.
.	.	2.a	2.cc
4E	.	.	.
2C	.	.	.
.	.	4g	4b-y
2E	.	[2g	2g
=99	=99	=99	=99
1D	1r	2g]	2.a
.	.	2f	.
.	.	.	8gL
.	.	.	8fJ
1C	2r	2g	1e
.	[2c	4G	.
.	.	4A	.
=100	=100	=100	=100
1G	2c]	4B-y	2.d
.	.	4c	.
.	2B-y	2.d	.
.	.	.	4e
2.F	2A	.	4f
.	.	4c	4g
.	[2c	2f	[2a
4E	.	.	.
=101	=101	=101	=101
2C	4c]	2e	4a]
.	4B-y	.	4g
2E	2G	2c	1g
1D	1A	1d	.
.	.	.	2f#i
=102	=102	=102	=102
1G	1B-y	2r	1g
.	.	2d	.
2r	1G	2e	1r
2F	.	[2d	.
=103	=103	=103	=103
2G	0r	4d]	0r
.	.	4e	.
2.F	.	4f	.
.	.	4g	.
.	.	4a	.
4G	.	4b-y	.
4A	.	[2a	.
4B-y	.	.	.
=104	=104	=104	=104
2c	0r	2a]	0r
2d	.	4g	.
.	.	4f	.
2c	.	2g	.
2B-y	.	[2b-y	.
=105	=105	=105	=105
1G	0r	4b-]	1r
.	.	4a	.
.	.	1g	.
1A	.	.	2r
.	.	2f#i	2a
=106	=106	=106	=106
1r	2r	2g	2b-y
.	2c	2e	2.a
2r	2d	2f	.
.	.	.	4b-y
[2A	[2c	[2e	4cc
.	.	.	4dd
=107	=107	=107	=107
2A]	4c]	2e]	4ee
.	4d	.	4ff
1c	4e	2A	1ee
.	4f	.	.
.	2g	2e	.
2F	2a	2f	4dd
.	.	.	4cc
=108	=108	=108	=108
0B-y	2g	2.d	2dd
.	2f	.	2.ff
.	.	4e	.
.	1d	2f	.
.	.	.	4ee
.	.	2g	[2dd
=109	=109	=109	=109
1A	1e	2a	2dd]
.	.	2e	2cc#i
[1D	1d	2f#X	2dd
.	.	[2g	2b-y
=110	=110	=110	=110
1D]	2r	2g]	1a
.	2A	2f#i	.
1G	2B-y	1g	1r
.	[2d	.	.
=111	=111	=111	=111
2F	2d]	0r	0r
2E	2c	.	.
2D	2.d	.	.
[2F	.	.	.
.	8cL	.	.
.	8B-yJ	.	.
=112	=112	=112	=112
2F]	2A	1r	0r
2E	1c	.	.
1D	.	2r	.
.	2BnXi	2d	.
=113	=113	=113	=113
1C	2c	2e	1r
.	4G	1g	.
.	4A	.	.
1r	4B-y	.	1dd
.	4c	.	.
.	4d	2f	.
.	4B-y	.	.
=114	=114	=114	=114
0r	2c	2e	2cc
.	2G	2d	2b-y
.	1A	2f	2a
.	.	[2e	[2cc
=115	=115	=115	=115
0r	1G	4e]	2cc]
.	.	4d	.
.	.	1g	2b-y
.	2r	.	1a
.	2d	2f#i	.
=116	=116	=116	=116
1c	2e	2g	1g
.	1g	2e	.
2B-y	.	2d	2r
2A	2f	2c	2a
=117	=117	=117	=117
2G	2.g	1d	2b-y
1B-y	.	.	1dd
.	8fL	.	.
.	8eJ	.	.
.	2d	1f	.
2A	[2f	.	2cc
=118	=118	=118	=118
1G	2f]	2.B-y	2dd
.	2e	.	4cc
.	.	4c	4b-y
2F	1f	2d	2a
2A	.	2c	[2cc
=119	=119	=119	=119
2.G	2r	1d	2cc]
.	1g	.	2bnXi
4F	.	.	.
2E	.	[1c	2cc
2F	2f	.	2a
=120	=120	=120	=120
2C	2.e	2c]	1g
1G	.	2B-y	.
.	4d	.	.
.	2e	1A	1r
2F	[2d	.	.
=121	=121	=121	=121
2.E	4d]	1G	2r
.	4c	.	.
.	1c	.	2cc
4F	.	.	.
1D	.	2r	2dd
.	2BnXi	2d	[2ff
=122	=122	=122	=122
2C	1c	2e	4ff]
.	.	.	4ee
1c	.	2.g	2.ee
.	1g	.	.
.	.	4f	4dd
2B-y	.	2d	[2dd
=123	=123	=123	=123
1A	2f	1.a	2dd]
.	2e	.	2cc
2D	2d	.	2.ff
[2B-y	[2f	[2d	.
.	.	.	4ee
=124	=124	=124	=124
4B-]	4f]	4d]	4dd
4c	4e	4e	4cc
2A	4d	4f	1cc
.	4c	4e	.
1G	1d	[1g	.
.	.	.	2bnXi
=125	=125	=125	=125
[0Cl	[0cl	2g]	[0ccl
.	.	1a	.
.	.	4g	.
.	.	4f	.
=126	=126	=126	=126
0C]	0c]	0el	0cc]
==	==	==	==
*-	*-	*-	*-
!!!system-decoration: s1,s2,s3,s4
!!!RDF**kern: i = editorial accidental
!!!RDF**kern: l = terminal long
!!!ENC: Maura Sugg
!!!END: 2026/3/27
!!!EED: Benjamin Ory
!!!EEV: 2026/04/22
!!!YEC: Copyright 2026 Irene Holzer, All Rights Reserved
!!!ONB: Translated from MusicXML on 2026/04/22
!!!verovio: header encoded
!!!header-left: Edited by Irene Holzer\n
!!!header-right:
!!!header-center: